images/flags/ag.svg

<svg viewBox="0 0 640 480" xmlns="http://www.w3.org/2000/svg" xmlns:xlink="http://www.w3.org/1999/xlink"><clipPath id="a"><path d="m-79.7 0h682.7v512h-682.7z"/></clipPath><g clip-path="url(#a)" fill-rule="evenodd" transform="matrix(.9375 0 0 .9375 74.7 0)"><path d="m-120 0h763.3v511.5h-763.3z" fill="#fff"/><path d="m-118.3.6h760.9v216.1h-761z"/><path d="m21.3 203.2h505v113.8h-505z" fill="#0061ff"/><path d="m642.8 1.8v510.2h-380.8l380.8-510.3zm-761.5 0v510.2h380.7l-380.7-510.3z" fill="#e20000"/><path d="m440.4 203.3-76.4-19.3 64.9-49-79.7 11.4 41-69.5-70.7 41 12.8-80.9-47.9 63.8-19.3-74-21.7 76.3-47.8-65 13.7 83.2-70.8-43.3 41 69.5-77.4-12.5 63.8 47.8-79.9 20.5h354.3z" fill="#ffd600"/></g></svg>

<svg xmlns="http://www.w3.org/2000/svg" id="flag-icon-css-ag" viewBox="0 0 640 480">
  <defs>
    <clipPath id="a">
      <path fill-opacity=".7" d="M-79.7 0H603v512H-79.7z"/>
    </clipPath>
  </defs>
  <g fill-rule="evenodd" clip-path="url(#a)" transform="translate(74.7) scale(.9375)">
    <path fill="#fff" d="M-120 0h763.3v511.5H-120z"/>
    <path d="M-118.3.6h760.9v216.1h-761z"/>
    <path fill="#0061ff" d="M21.3 203.2h505V317h-505z"/>
    <path fill="#e20000" d="M642.8 1.8V512H262L642.8 1.7zm-761.5 0V512H262L-118.7 1.7z"/>
    <path fill="#ffd600" d="M440.4 203.3L364 184l64.9-49-79.7 11.4 41-69.5-70.7 41L332.3 37l-47.9 63.8-19.3-74-21.7 76.3-47.8-65 13.7 83.2L138.5 78l41 69.5-77.4-12.5 63.8 47.8L86 203.3h354.3z"/>
  </g>
</svg>
